X: 12772
T: Father Tom's Wager
R: jig
M: 6/8
K: Gmajor
|:dge dBG|AEF GDB,|G,B,D GBd|cBc ABc|
dge dBG|AEF GDB,|G,B,D GBd|cAF G3:|
|:Bdg bag|fed cAF|DEG FGA|GAB ABc|
[1 Bdg bag|fed cAF|DEG FGA|BGF G3:|
[2 Bdg bag|fed cAB|c3 B3|AGF G3||

